ix/video-play_bold.svg

<svg viewBox="0 0 24 24" fill="none" xmlns="http://www.w3.org/2000/svg" height="1em" width="1em">
  <path d="M14.7295 2H9.26953V6.36H14.7295V2Z" fill="#292D32"/>
  <path d="M16.2305 2V6.36H21.8705C21.3605 3.61 19.3305 2.01 16.2305 2Z" fill="#292D32"/>
  <path d="M2 7.85938V16.1894C2 19.8294 4.17 21.9994 7.81 21.9994H16.19C19.83 21.9994 22 19.8294 22 16.1894V7.85938H2ZM14.44 16.1794L12.36 17.3794C11.92 17.6294 11.49 17.7594 11.09 17.7594C10.79 17.7594 10.52 17.6894 10.27 17.5494C9.69 17.2194 9.37 16.5394 9.37 15.6594V13.2594C9.37 12.3794 9.69 11.6994 10.27 11.3694C10.85 11.0294 11.59 11.0894 12.36 11.5394L14.44 12.7394C15.21 13.1794 15.63 13.7994 15.63 14.4694C15.63 15.1394 15.2 15.7294 14.44 16.1794Z" fill="#292D32"/>
  <path d="M7.76891 2C4.66891 2.01 2.63891 3.61 2.12891 6.36H7.76891V2Z" fill="#292D32"/>
</svg>

<svg viewBox="0 0 24 24" fill="none" xmlns="http://www.w3.org/2000/svg" height="1em" width="1em">
  <path d="M14.73 2H9.27v4.36h5.46V2Zm1.5 0v4.36h5.64c-.51-2.75-2.54-4.35-5.64-4.36ZM2 7.86v8.33C2 19.83 4.17 22 7.81 22h8.38c3.64 0 5.81-2.17 5.81-5.81V7.86H2Zm12.44 8.32-2.08 1.2c-.44.25-.87.38-1.27.38-.3 0-.57-.07-.82-.21-.58-.33-.9-1.01-.9-1.89v-2.4c0-.88.32-1.56.9-1.89.58-.34 1.32-.28 2.09.17l2.08 1.2c.77.44 1.19 1.06 1.19 1.73 0 .67-.43 1.26-1.19 1.71ZM7.769 2c-3.1.01-5.13 1.61-5.64 4.36h5.64V2Z" fill="#292D32"/>
</svg>
